X:1
T:Title
%%score { ( 1 3 ) | 2 }
L:1/8
M:3/4
K:Ab
V:1 treble nm="Grand Piano"
V:3 treble 
V:2 bass 
V:1
 z2 z2[Q:1/4=100] [CE]>[CA] | [Ec]3 [=D_c] [E=c]>[Fd] | [Ec]4 [Ec]>[EB] | [FA]3 [FB] [FA]>[DF] | %4
 [FA]4 [EG]>[DF] | [CE]3 [_C=D] [=CE]>[CA] | c4 e>c | c3 B B>=A | B4 c>d | e3 c [DB]>[CA] | %10
 [Ec]4 [Ec]>[Ec] | [=Ec]3 [EB] [EG]>[GB] | [FA]4 [_GA]>[GA] | [FA]3 [FB] [FA]>[DF] | %14
 [CE]4 [EA]>[FB] | c3 c B>B | [CA]6 |[M:7/8] B2 B3 EF |[M:3/4] [CE]6 |[M:7/8] [Ec]2 [Ec]3 BA | %20
[M:3/4] [Ec]4 z2 | e3 [Ec] [EB][EA] | [FA]4 [=EA][_EB] | c3 c BB |[M:2/4] [CA]4 |] %25
V:2
 z2 z2 [A,,A,]>[A,,A,] | [A,,A,]3 [A,,A,] [A,,A,]>[A,,A,] | [A,,A,]4 [A,,A,]>[A,,A,] | %3
 [D,D]3 [D,D] [D,D]>[D,A,] | [D,D]4 [D,A,]>[D,A,] | [A,,A,]3 [A,,A,] [A,,A,]>[A,,A,] | %6
 [A,E]4 [A,CE]>[A,E] | [E,A,E]3 [E,G,E] [E,G,E]>[E,F,E] | [E,G,E]4 [A,E]>[A,B,E] | %9
 [A,CE]3 [A,E] [A,,E,]>[A,,E,] | [A,,A,]4 [A,,A,]>[A,,A,] | [C,G,]3 [C,G,] [C,C]>[C,C] | %12
 [F,C]4 [E,C]>[E,C] | [D,D]3 [D,D] [D,D]>[D,A,] | [A,,A,]4 [C,A,]>[D,A,] | %15
 [E,A,E]3 [E,A,E] [E,G,D]>[E,G,D] | [A,,A,]6 |[M:7/8] [E,G,D]2 [E,G,D]3 DD |[M:3/4] A,,A,, A,,4 | %19
[M:7/8] [A,,A,]2 [A,,A,]3 DC |[M:3/4] [A,,A,]A,, A,,2 [A,E]>[A,B,E] | %21
 [A,CE]3 [A,,A,] [B,,G,][C,A,] | [D,D]4 [D,D][D,A,] | [E,A,E]3 [E,A,E] [E,F,D][E,G,D] | %24
[M:2/4] [A,,A,]4 |] %25
V:3
 x6 | x6 | x6 | x6 | x6 | x6 | x6 | x6 | x6 | x6 | x6 | x6 | x6 | x6 | x6 | x6 | x6 |[M:7/8] x7 | %18
[M:3/4] A,A, A,4 |[M:7/8] x7 |[M:3/4] z A, A,2 c>d | x6 | x6 | x6 |[M:2/4] x4 |] %25

